source/svgs/bowtie/uEA87-file-type-md.svg

<svg xmlns="http://www.w3.org/2000/svg" viewBox="0 0 448 448" enable-background="new 0 0 448 448"><path d="M256 160h128v288h32v-326.624l-121.376-121.376h-230.624v256h32v-224h160v128zm32-121.376l89.376 89.376h-89.376v-89.376zm-105.375 409.376h-32.406v-87.125c0-9.438.406-19.813 1.219-31.188h-.813c-1.688 8.938-3.219 15.375-4.563 19.281l-34.124 99.032h-26.813l-34.75-98c-.938-2.656-2.469-9.406-4.563-20.313h-.938c.906 14.344 1.344 26.938 1.344 37.781v80.532h-29.562v-145.625h48.031l29.75 86.313c2.375 6.906 4.125 13.844 5.188 20.813h.625c1.813-8.063 3.75-15.063 5.781-21l29.75-86.125h46.844v145.624zm33.094 0v-145.625h51.594c51.719 0 77.594 23.656 77.594 70.969 0 22.688-7.063 40.813-21.188 54.344-14.094 13.531-32.906 20.312-56.406 20.312h-51.594zm32.812-118.937v92.313h16.25c14.219 0 25.375-4.25 33.469-12.781s12.125-20.156 12.125-34.844c0-13.875-4-24.781-12.031-32.75-8.031-7.938-19.281-11.938-33.781-11.938h-16.032z"/></svg>

<svg xmlns="http://www.w3.org/2000/svg" viewBox="0 0 448 448"><path d="M256 160h128v288h32V121.376L294.624 0H64v256h32V32h160v128zm32-121.376L377.376 128H288V38.624zM182.625 448h-32.406v-87.125c0-9.438.406-19.813 1.219-31.188h-.813c-1.688 8.938-3.219 15.375-4.563 19.281L111.938 448H85.125l-34.75-98c-.938-2.656-2.469-9.406-4.563-20.313h-.938c.906 14.344 1.344 26.938 1.344 37.781V448H16.656V302.375h48.031l29.75 86.313c2.375 6.906 4.125 13.844 5.188 20.813h.625c1.813-8.063 3.75-15.063 5.781-21l29.75-86.125h46.844V448zm33.094 0V302.375h51.594c51.719 0 77.594 23.656 77.594 70.969 0 22.688-7.063 40.813-21.188 54.344C309.625 441.219 290.813 448 267.313 448h-51.594zm32.812-118.937v92.313h16.25c14.219 0 25.375-4.25 33.469-12.781s12.125-20.156 12.125-34.844c0-13.875-4-24.781-12.031-32.75-8.031-7.938-19.281-11.938-33.781-11.938h-16.032z"/></svg>
